flockapp/img/logo.svg

<?xml version="1.0" encoding="UTF-8"?>
<svg viewBox="0 0 134 179" xmlns="http://www.w3.org/2000/svg">
<path d="m123.83 158.9l-71.401 19.132c-6.852 1.837-13.88-2.201-15.69-8.954l-35.794-133.59c-1.818-6.784 2.291-13.772 9.111-15.599l71.4-19.132c6.853-1.837 13.881 2.201 15.69 8.954l35.786 133.56c1.817 6.784-2.291 13.771-9.102 15.63zm-34.679-147.04c-0.649-2.423-3.159-3.828-5.574-3.181l-71.4 19.132c-2.415 0.647-3.886 3.119-3.237 5.541l2.216 8.27 80.211-21.49-2.216-8.272zm4.304 16.194l-80.178 21.485 24.082 89.874 80.178-21.482-24.082-89.877zm31.449 117.37l-5.254-19.609-80.179 21.483 5.255 19.611c0.649 2.422 3.159 3.828 5.574 3.179l71.368-19.123c2.447-0.654 3.877-3.15 3.236-5.541zm-32.863 5.275l-16.218 4.345c-2.219 0.594-4.49-0.702-5.079-2.899s0.73-4.455 2.949-5.049l16.219-4.346c2.219-0.593 4.49 0.702 5.078 2.899 0.589 2.196-0.73 4.454-2.949 5.05z" fill="#fff" fill-rule="evenodd"/>
</svg>

<?xml version="1.0" encoding="UTF-8" standalone="no"?>
<svg 
 xmlns="http://www.w3.org/2000/svg"
 xmlns:xlink="http://www.w3.org/1999/xlink"
 width="134px" height="179px">
<path fill-rule="evenodd"  fill="rgb(255, 255, 255)"
 d="M123.827,158.905 L52.426,178.037 C45.574,179.874 38.546,175.836 36.736,169.083 L0.942,35.497 C-0.876,28.713 3.233,21.725 10.053,19.898 L81.453,0.766 C88.306,-1.071 95.334,2.967 97.143,9.720 L132.929,143.275 C134.746,150.059 130.638,157.046 123.827,158.905 ZM89.148,11.862 C88.499,9.439 85.989,8.034 83.574,8.681 L12.174,27.813 C9.759,28.460 8.288,30.932 8.937,33.354 L11.153,41.624 L91.364,20.134 L89.148,11.862 ZM93.452,28.056 L13.274,49.541 L37.356,139.415 L117.534,117.933 L93.452,28.056 ZM124.901,145.425 L119.647,125.816 L39.468,147.299 L44.723,166.910 C45.372,169.332 47.882,170.738 50.297,170.089 L121.665,150.966 C124.112,150.312 125.542,147.816 124.901,145.425 ZM92.038,150.700 L75.820,155.045 C73.601,155.639 71.330,154.343 70.741,152.146 C70.152,149.949 71.471,147.691 73.690,147.097 L89.909,142.751 C92.128,142.158 94.399,143.453 94.987,145.650 C95.576,147.846 94.257,150.104 92.038,150.700 Z"/>
</svg>
